images/message.svg

<svg width="25" height="27" viewBox="0 0 25 27" fill="none" xmlns="http://www.w3.org/2000/svg">
<path d="M22.3214 0C20.8432 0 19.6429 1.23908 19.6429 2.76497C19.6429 4.29087 20.8432 5.52995 22.3214 5.52995C23.7996 5.52995 25 4.29087 25 2.76497C25 1.23908 23.7996 0 22.3214 0Z" fill="#F60C0C"/>
<path fill-rule="evenodd" clip-rule="evenodd" d="M18.4377 11.5468L14.6905 16.5378C14.3923 16.9407 13.8737 17.0464 13.4588 16.8189L13.3421 16.7399L9.64674 13.8744L6.39225 18.1988C6.21073 18.4518 5.92677 18.6137 5.62725 18.6004C5.40683 18.6004 5.21234 18.5201 5.03081 18.3996C4.64183 18.1038 4.5381 17.555 4.75852 17.1281L4.83762 17.0076L8.67428 11.8533C8.83117 11.6392 9.06456 11.4933 9.32258 11.4531C9.58191 11.425 9.84123 11.4933 10.0617 11.6673L13.6546 14.5851L16.791 10.3958C16.9998 10.1013 17.3486 9.9407 17.7 9.98085C18.0358 10.0076 18.3483 10.2352 18.4896 10.5698C18.6322 10.9044 18.5933 11.2791 18.3859 11.5736L18.4377 11.5468ZM17.3616 2.84709C17.3616 2.51248 17.3875 2.17787 17.4394 1.84326H7.00298C2.59322 1.84326 0 4.54689 0 9.09756V19.0006C0 23.5392 2.59322 26.2295 7.00298 26.2295H16.5836C20.9921 26.2295 23.5853 23.5392 23.5853 19.0006V8.20081C23.2611 8.25435 22.95 8.29317 22.6258 8.29317C19.7214 8.29317 17.3616 5.85856 17.3616 2.84709Z" fill="#200E32"/>
</svg>

<svg xmlns="http://www.w3.org/2000/svg" width="25" height="27" fill="none"  xmlns:v="https://vecta.io/nano"><path d="M22.321 0c-1.478 0-2.678 1.239-2.678 2.765s1.2 2.765 2.678 2.765S25 4.291 25 2.765 23.8 0 22.321 0z" fill="#f60c0c"/><path fill-rule="evenodd" d="M18.438 11.547l-3.747 4.991a.95.95 0 0 1-1.232.281l-.117-.079-3.695-2.865-3.254 4.324c-.182.253-.465.415-.765.402-.22 0-.415-.08-.596-.201-.389-.296-.493-.845-.272-1.271l.079-.12 3.837-5.154a1 1 0 0 1 .648-.4 1 1 0 0 1 .739.214l3.593 2.918 3.136-4.189c.209-.294.558-.455.909-.415.336.027.648.254.79.589a1.03 1.03 0 0 1-.104 1.004l.052-.027zm-1.076-8.7a6.54 6.54 0 0 1 .078-1.004H7.003C2.593 1.843 0 4.547 0 9.098v9.903c0 4.539 2.593 7.229 7.003 7.229h9.581c4.409 0 7.002-2.69 7.002-7.229v-10.8c-.324.054-.635.092-.959.092-2.904 0-5.264-2.435-5.264-5.446z" fill="#200e32"/></svg>
